X: 123103
P: Same figure.
M: C
L: 1/8
K: A
ue2 |\
cA A/A/A (AB)AF | EFAB dcBA |\
dB B/B/B (Bc)BA | Bcde gfed |\
cA A/A/A (AB)AF | EFAB dcBA |\
ue2 |\
cAeA fAeA | cAeA fedc |\
dBfB gBfB | dBfB gfed |\
cAeA fAeA | cAeA fedc |\


